public/svgs/duotone/utility-pole.svg

<svg xmlns="http://www.w3.org/2000/svg" viewBox="0 0 512 512"><!-- Font Awesome Pro 6.0.0-alpha2 by @fontawesome - https://fontawesome.com License - https://fontawesome.com/license (Commercial License) --><defs><style>.fa-secondary{opacity:.4}</style></defs><path d="M128 56C128 42.744 117.254 32 104 32S80 42.744 80 56V64H128V56ZM24 32C10.746 32 0 42.744 0 56V64H48V56C48 42.744 37.254 32 24 32ZM83.156 128L224 221.896V183.438L140.844 128H83.156ZM488 32C474.746 32 464 42.744 464 56V64H512V56C512 42.744 501.254 32 488 32ZM408 32C394.746 32 384 42.744 384 56V64H432V56C432 42.744 421.254 32 408 32ZM288 183.438V221.896L428.844 128H371.156L288 183.438Z" class="fa-secondary"/><path d="M512 64V96C512 113.672 497.674 128 480 128H288V512H224V128H32C14.326 128 0 113.672 0 96V64H224V16C224 7.162 231.164 0 240 0H272C280.836 0 288 7.162 288 16V64H512Z" class="fa-primary"/></svg>

<svg xmlns="http://www.w3.org/2000/svg" viewBox="0 0 512 512"><!--! Font Awesome Pro 6.5.1 by @fontawesome - https://fontawesome.com License - https://fontawesome.com/license (Commercial License) Copyright 2023 Fonticons, Inc. --><defs><style>.fa-secondary{opacity:.4}</style></defs><path class="fa-secondary" d="M128 64V56c0-13.3-10.7-24-24-24S80 42.7 80 56v8h48zM48 64V56c0-13.3-10.7-24-24-24S0 42.7 0 56v8H48zm35.2 64L224 221.9V183.4L140.8 128H83.2zM288 183.4v38.5L428.8 128H371.2L288 183.4zM384 64h48V56c0-13.3-10.7-24-24-24s-24 10.7-24 24v8zm80 0h48V56c0-13.3-10.7-24-24-24s-24 10.7-24 24v8z"/><path class="fa-primary" d="M256 0c17.7 0 32 14.3 32 32V64H512V96c0 17.7-14.3 32-32 32H288V480c0 17.7-14.3 32-32 32s-32-14.3-32-32V128H32C14.3 128 0 113.7 0 96V64H224V32c0-17.7 14.3-32 32-32z"/></svg>
